!!!OTL: Dem Unveraenderlichen.
!!!OTL-incipit: DEM EWGEN UNSRE LIEDER
!!!COM: G. W. Fink
!!!ARE: Europa, Mitteleuropa, Deutschland
!!!SCT: F1003
!!!TXL: @@DE
!!!YEM: Copyright 1995, estate of Helmut Schaffrath.
**kern	**text
*ICvox	*
*I"Sopran	*
*clefG2	*
*M3/4	*
*k[b-e-a-]	*
*E-:	*
!LO:TX:a:t=Mäßig langſam.	!
!LO:TX:a:t=Dreiſtimmig, beſſer ohne Begleitung.	!
!LO:TX:a:t=P:only the highest voice encoded:problem	!
{4b-	Dem
=1	=1
4.ee-	Ew'-
8dd	-gen
8cc	un-
8b-	-ſre
=2	=2
(8.b-L	Lie-
16a-J)	.
4g}	-der,
{4b-/	was
=3	=3
8.ee-	auch
16cc	das
4b-	Herʒ
(8ddL	be-
8ccJ)	.
=4	=4
4b-	-wegt!
4r}	.
{4b-	Ver-
=5	=5
4.ee-	-traut,
8dd	vertraut,
8cc	.
8b-	ihr
=6	=6
(8.b-L	Brü-
16a-J)	.
4g}	-der,
{4b-/	dem,
=7	=7
8.ee-	der
16cc	die
4b-	Wel-
(8ddL	-ten
8ccJ)	.
=8	=8
4b-	trägt!
4r}	.
{4b-	Er
=9	=9
4.ff	läßt
8ff	wohl
8ff	Blätter
8ee-	.
=10	=10
8.ee-L	ſter-
16ddJ	.
4dd}	-ben
!LO:TX:a:t=dolce	!
{4cc	und
=11	=11
4.b-	Son-
(16ccL	-nen
16b-J)	.
8a-	ſich
8g	ver-
=12	=12
(4g	-glühn:
4f)}	.
{4b-	doch
=13	=13
4.ee-	keins
!LO:TX:a:t=dolce	!
8dd	läßt
8cc	er
8b-	ver-
=14	=14
8.b-L	-der-
16a-J	.
4g}	-ben,
{4ee-	neu
=15	=15
8.ff	ſoll
16ff	es
4ee-	auf-
4dd	-er-
=16	=16
4ee-	-blühn,
4r}	.
!LO:TX:a:t=dolce	!
{(8gL	neu
8a-J)	.
=17	=17
8.b-/	ſoll
16a-	es
4g	auf-
4f	-er-
=18	=18
4e-	-blühn.
4r}	.
==	==
!!!AGN: Erbauungs - Lied, religioes
!!!ONB: ESAC (Essen Associative Code) Database: FINK
!!!AMT: simple triple
!!!AIN: vox
!!!EED: Helmut Schaffrath
!!!EEV: 1.0
!!Text: G. W. Fink
!!!GTL: Erbauungslieder
!!!source: Musikalischer Hausschatz der Deutschen. Eine Sammlung von über 1000 Liedern und Gesängen mit Singstimmen und Klavierbegleitung. Leipzig, Litterarisches Verlags-Haus.
!!!page: 758
!!!URL-scan: https://www.digitale-sammlungen.de/en/view/bsb11144622?page=637
!!!ENC: Anna Maria Matuszewska
!!!EEV: 2024/08/08
*-	*-